Hatter-kde-dark/actions/16/transform-scale-textbox-points.svg

<?xml version="1.0" encoding="UTF-8"?>
<svg viewBox="0 0 16 16" xmlns="http://www.w3.org/2000/svg">
 <defs id="defs3051">
  <style id="current-color-scheme" type="text/css">.ColorScheme-Text {
        color:#dedede;
      }</style>
 </defs>
 <path class="ColorScheme-Text" d="m2 2v3h3v-3h-3zm9 0v3h3v-3h-3zm-8 1h1v1h-1v-1zm9 0h1v1h-1v-1zm-6 1v1h1v-1h-1zm3 0v1h1v-1h-1zm-5 2v1h1v-1h-1zm7 0v1h1v-1h-1zm-7 3v1h1v-1h-1zm5 0v1h2v4h1v-4h2v-1h-2-1-2zm-7 2v3h3v-3h-3zm4 0v1h1v-1h-1zm-3 1h1v1h-1v-1z" fill="currentColor"/>
</svg>

<svg xmlns="http://www.w3.org/2000/svg" viewBox="0 0 16 16">
  <defs id="defs3051">
    <style type="text/css" id="current-color-scheme">
      .ColorScheme-Text {
        color:#dedede;
      }
      </style>
  </defs>
 <path style="fill:currentColor;fill-opacity:1;stroke:none" 
       d="M 2 2 L 2 5 L 5 5 L 5 2 L 2 2 z M 11 2 L 11 5 L 14 5 L 14 2 L 11 2 z M 3 3 L 4 3 L 4 4 L 3 4 L 3 3 z M 12 3 L 13 3 L 13 4 L 12 4 L 12 3 z M 6 4 L 6 5 L 7 5 L 7 4 L 6 4 z M 9 4 L 9 5 L 10 5 L 10 4 L 9 4 z M 4 6 L 4 7 L 5 7 L 5 6 L 4 6 z M 11 6 L 11 7 L 12 7 L 12 6 L 11 6 z M 4 9 L 4 10 L 5 10 L 5 9 L 4 9 z M 9 9 L 9 10 L 11 10 L 11 14 L 12 14 L 12 10 L 14 10 L 14 9 L 12 9 L 11 9 L 9 9 z M 2 11 L 2 14 L 5 14 L 5 11 L 2 11 z M 6 11 L 6 12 L 7 12 L 7 11 L 6 11 z M 3 12 L 4 12 L 4 13 L 3 13 L 3 12 z "
     class="ColorScheme-Text"
     />
</svg>
